src/assets/img/kaktuz.svg

<svg width="108" height="24" viewBox="0 0 108 24" fill="none" xmlns="http://www.w3.org/2000/svg">
<path fill-rule="evenodd" clip-rule="evenodd" d="M64.214 2.84051C64.3162 2.56106 64.441 2.41015 64.5886 2.3878C67.3582 1.98538 68.6805 2.10275 68.5557 2.73991C68.5557 3.18703 68.4762 4.08687 68.3173 5.43942L68.13 7.06584C68.0619 7.66945 68.0165 8.17806 67.9938 8.59165L67.9257 9.81565L67.8576 11.0732C67.7895 12.0233 67.7101 12.8337 67.6193 13.5044C67.5852 13.8286 67.1539 14.1136 66.3253 14.3596L65.4399 14.6278L64.5375 14.8626L63.3117 15.1476C63.0279 15.2147 62.8917 15.4047 62.903 15.7177C62.9144 15.7736 62.9257 15.9077 62.9371 16.1201L62.9541 16.6902C62.9882 17.2603 62.9995 17.7689 62.9882 18.216L63.0733 19.658L63.1584 21.167C63.2265 22.3184 63.2435 23.0729 63.2095 23.4306C63.1754 23.8665 62.9655 24.051 62.5795 23.9839C62.1028 23.9057 61.3991 23.8777 60.4683 23.9001L59.3616 23.9336L58.34 23.9168C57.8973 23.8945 57.6987 23.6653 57.7441 23.2294L57.8292 22.609L57.9314 22.0054C58.1244 20.5187 58.113 18.5234 57.8973 16.0195C57.8292 15.17 57.3809 14.8626 56.5523 15.0973C55.9393 15.2538 54.9121 15.3432 53.4706 15.3656L52.5341 15.2985C52.2958 15.2538 52.1652 15.1085 52.1425 14.8626L52.1085 14.4769L52.1425 14.108C52.2447 13.102 52.3241 11.7942 52.3809 10.1845L52.449 8.30661C52.4944 7.58003 52.5455 6.88699 52.6022 6.22748C52.6703 5.65739 52.7895 5.23821 52.9598 4.96994C53.1073 4.74638 53.3173 4.62342 53.5897 4.60106C54.861 4.48928 55.8088 4.60665 56.4331 4.95317L56.5182 5.02024L56.5353 5.03701L56.5693 5.10408L56.5863 5.15438V5.55679L56.5523 5.97597C56.5523 6.07657 56.5466 6.36161 56.5353 6.8311C56.5353 7.33411 56.5296 7.8483 56.5182 8.37367C56.5182 9.81565 56.5353 10.6093 56.5693 10.7546L56.6204 10.9726L56.7055 11.1906C56.785 11.3359 56.9098 11.4141 57.0801 11.4253C57.5341 11.4588 57.8122 11.2073 57.9144 10.6708L58.0336 9.74858L58.323 4.04775C58.3343 3.75712 58.3287 3.27646 58.306 2.60577L58.2889 1.83448L58.2719 1.14703C58.2833 0.677546 58.5216 0.386915 58.987 0.275134C59.8497 0.0627498 60.911 -0.026675 62.1709 0.0068593C62.5568 0.0180374 62.7384 0.18012 62.7157 0.493107L62.6817 0.811683L62.4774 4.33279L62.3412 7.87066C62.3071 8.67548 62.4149 9.31264 62.6647 9.78212C63.0279 9.62562 63.2435 9.35735 63.3117 8.97729L63.3627 8.45751L63.4138 7.9545C63.4706 7.70858 63.5216 7.36765 63.567 6.9317L63.6692 5.72446C63.7714 4.66254 63.8849 3.9192 64.0097 3.49443L64.0949 3.19262L64.214 2.84051ZM66.0358 7.16644L66.0699 7.50178L66.121 7.9545C66.2004 7.61915 66.2458 7.25586 66.2572 6.86463L66.2231 5.8586C66.2004 5.91449 66.1664 6.01509 66.121 6.16041C66.0642 6.30572 66.0358 6.39515 66.0358 6.42868V7.16644ZM64.9802 12.0457L65.0143 12.2804L65.0653 12.5822C65.2129 12.1798 65.298 11.7495 65.3207 11.2912L65.2867 10.1007C65.2413 10.1678 65.1788 10.2851 65.0994 10.4528C65.0086 10.6317 64.9632 10.7434 64.9632 10.7881L64.9462 11.6433L64.9802 12.0457ZM60.8258 14.829L60.8599 15.1308L60.8939 15.4997C60.9961 15.0079 61.0529 14.4713 61.0642 13.8901L61.0131 12.3978C60.9791 12.4872 60.9337 12.6325 60.8769 12.8337C60.8202 13.0573 60.7918 13.1914 60.7918 13.2362V14.326L60.8258 14.829ZM60.4172 5.52326C60.508 5.34441 60.5591 5.23263 60.5704 5.18791L60.6385 4.24895L60.6045 3.82977L60.5875 3.5615L60.5534 3.24292C60.3832 3.66769 60.2753 4.12599 60.2299 4.61783L60.1959 5.9089C60.2526 5.83066 60.3264 5.70211 60.4172 5.52326ZM60.1618 21.0664L60.2129 21.5191L60.264 22.0725C60.3775 21.3347 60.4342 20.5355 60.4342 19.6747C60.4342 19.127 60.4002 18.3725 60.3321 17.4112C60.298 17.5341 60.2526 17.7521 60.1959 18.0651C60.1278 18.4004 60.0937 18.6072 60.0937 18.6855L60.1107 20.3119L60.1618 21.0664ZM60.2129 8.07187L60.1788 7.77006L60.1618 7.38441C60.0143 7.87625 59.9235 8.40721 59.8894 8.97729L59.8724 10.4863C59.9064 10.3969 59.9632 10.2516 60.0426 10.0504C60.1221 9.83801 60.1618 9.70387 60.1618 9.64798L60.2299 8.57488L60.2129 8.07187ZM55.037 13.6721L55.071 13.9907L55.1221 14.4266C55.2243 14.1025 55.281 13.7559 55.2923 13.3871L55.2583 12.3978C55.2242 12.4537 55.1845 12.5487 55.1391 12.6828C55.0824 12.8282 55.054 12.9176 55.054 12.9511L55.037 13.6721ZM54.6283 7.18321L54.6624 7.51855L54.7305 7.97126C54.844 7.63592 54.9064 7.27263 54.9178 6.8814L54.8837 5.87537C54.8497 5.93126 54.8043 6.03186 54.7475 6.17718C54.6794 6.32249 54.6454 6.41192 54.6454 6.44545L54.6283 7.18321ZM53.9813 10.3522L54.0154 10.654L54.0665 11.0397C54.18 10.749 54.2481 10.436 54.2708 10.1007L54.2367 9.2288C54.2027 9.28469 54.1573 9.37412 54.1005 9.49708C54.0324 9.62003 53.9984 9.69828 53.9984 9.73182L53.9813 10.3522Z" fill="#00AB55"/>
<path d="M15.0572 18.9515C14.4037 18.8765 13.311 18.8122 11.779 18.7586C10.1507 18.6943 9.05792 18.6836 8.50084 18.7265L6.07432 18.8229C5.78507 18.8229 5.46368 18.5069 5.11014 17.8748C4.81018 17.3284 4.63341 16.8678 4.57985 16.4928C4.48343 15.8286 4.51021 14.2484 4.66019 11.7523L4.74054 10.3703L4.80482 9.05256C4.83696 8.13124 4.82089 7.45095 4.75661 7.01172L4.69233 6.56177L4.7084 6.12789C4.74054 5.8065 4.86374 5.59223 5.078 5.4851C5.71008 5.18514 7.41346 5.19049 10.1881 5.50117L11.6987 5.69401L12.3897 5.79043L13.0164 5.87077C13.8842 5.98862 14.3502 6.04218 14.4145 6.03147C14.6394 5.99933 14.7519 5.84935 14.7519 5.58152C14.7626 5.47439 14.693 4.95481 14.543 4.02277L14.3341 2.7854L14.1252 1.56411C14.0716 1.18915 13.7824 1.03381 13.2574 1.09809C12.9039 1.14095 12.1111 1.13559 10.8791 1.08202L10.0435 1.04988L9.15969 1.01775L7.27954 0.937397C4.04419 0.840979 2.14797 0.996319 1.59089 1.40342C0.541011 2.17476 0.0107131 3.09073 0 4.15132C0 4.72983 0.0910613 7.9384 0.273184 13.777C0.466019 19.7014 0.583863 22.7492 0.626716 22.9207C0.723134 23.3063 0.953465 23.5634 1.31771 23.692L1.7998 23.7884H2.21761C2.2926 23.7884 2.65149 23.7991 3.29428 23.8206L4.29059 23.8527L5.41547 23.9009C7.46167 23.9759 8.61332 24.008 8.87044 23.9973C9.22397 23.9759 10.156 23.9652 11.6666 23.9652H14.4627C14.6984 23.9652 14.8805 23.842 15.009 23.5956C15.1055 23.4135 15.1697 23.1617 15.2019 22.8403L15.5233 19.5139C15.5554 19.1818 15.4001 18.9943 15.0572 18.9515Z" fill="#00AB55"/>
<path fill-rule="evenodd" clip-rule="evenodd" d="M18.092 20.5906C18.242 20.1727 18.4402 19.6639 18.6866 19.0639L18.9758 18.3569C19.0937 18.0676 19.2062 17.7784 19.3133 17.4891C19.3776 17.307 19.6133 16.4982 20.0204 15.0626L20.2775 14.1948L20.5185 13.3432C20.7006 12.7218 20.8399 12.2611 20.9363 11.9612C21.247 10.9541 21.6005 9.64178 21.9969 8.02411L22.479 6.04754L22.9932 4.05491C23.0897 3.67995 23.3039 2.97824 23.636 1.94978C23.861 1.25343 24.2788 0.93204 24.8895 0.985606L25.2751 1.00168H25.7251C26.1322 0.980249 26.4107 0.980249 26.5607 1.00168C27.2463 1.07667 27.9159 1.12488 28.5694 1.1463L29.405 1.17844C29.7586 1.19987 30.1496 1.23201 30.5781 1.27486C31.6708 1.37128 32.2386 1.75159 32.2815 2.4158L32.2976 3.05859C32.2976 3.4764 32.3083 4.02812 32.3297 4.71376L32.3618 6.65819C32.4047 8.36157 32.4208 9.50251 32.41 10.081V10.4346C32.4315 10.8524 32.485 11.7737 32.5707 13.1985L32.635 14.1627L32.6993 15.1912L32.8279 17.3284C33.0528 20.9602 33.1546 22.9367 33.1332 23.2581C33.101 23.7616 32.8171 23.9813 32.2815 23.917C32.0672 23.8848 30.9102 23.8206 28.8104 23.7241C28.6176 23.7134 28.4837 23.3492 28.4087 22.6314L28.3605 22.1011L28.3123 21.5387L28.1998 20.3013C28.1677 19.9692 28.0337 19.7871 27.7981 19.7549C27.4874 19.7014 27.1821 19.6371 26.8821 19.5621L26.1429 19.3693C25.5858 19.2086 25.0287 19.1175 24.4716 19.0961C23.9253 19.0639 23.5503 19.2996 23.3468 19.8031L22.5433 21.9404C22.5111 22.0261 22.4415 22.1707 22.3344 22.3743C22.2272 22.61 22.1094 22.835 21.9808 23.0492C21.638 23.6277 21.3863 23.9223 21.2256 23.933C20.5506 23.9866 19.6936 24.008 18.6544 23.9973C18.2902 23.9866 17.9527 23.9759 17.642 23.9652C17.3742 23.9545 17.2349 23.9438 17.2242 23.933C17.085 23.8795 17.1707 23.3545 17.4813 22.3582L17.851 21.2494L18.0116 20.8316L18.092 20.5906ZM25.2591 15.0465C25.3126 15.0787 25.95 15.2179 27.1713 15.4643C27.7391 15.5715 28.1087 15.2394 28.2801 14.468C28.3444 14.2002 28.3819 13.8842 28.3926 13.5199V12.7807C28.3926 11.9665 28.3766 11.1148 28.3444 10.2256V8.57047C28.3551 7.68129 28.3123 7.01707 28.2159 6.57784C28.1623 6.28858 27.9588 6.14931 27.6052 6.16003L27.0749 6.20824L26.8178 6.25645L26.6089 6.27252C26.4482 6.27252 26.3196 6.35286 26.2232 6.51356L26.1268 6.73853L26.0786 6.94744C25.8751 7.74021 25.6822 8.70974 25.5001 9.85604L25.2751 11.3827C25.1787 12.004 25.0823 12.5825 24.9859 13.1182L24.9377 13.3271L24.8734 13.5681L24.777 14.1145C24.7448 14.5752 24.9055 14.8858 25.2591 15.0465Z" fill="#00AB55"/>
<path d="M46.4573 18.7586C47.9893 18.8122 49.082 18.8765 49.7355 18.9515C50.0783 18.9943 50.2337 19.1818 50.2015 19.5139L49.8801 22.8403C49.848 23.1617 49.7837 23.4135 49.6873 23.5956C49.5588 23.842 49.3766 23.9652 49.1409 23.9652H46.3448C44.8343 23.9652 43.9022 23.9759 43.5487 23.9973C43.2916 24.008 42.1399 23.9759 40.0937 23.9009L38.9689 23.8527L37.9725 23.8206C37.3298 23.7991 36.9709 23.7884 36.8959 23.7884H36.4781L35.996 23.692C35.6317 23.5634 35.4014 23.3063 35.305 22.9207C35.2621 22.7492 35.1443 19.7014 34.9515 13.777C34.7693 7.9384 34.6783 4.72983 34.6783 4.15132C34.689 3.09073 35.2193 2.17476 36.2692 1.40342C36.8262 0.996319 38.7225 0.840979 41.9578 0.937397L43.838 1.01775L44.7218 1.04988L45.5574 1.08202C46.7894 1.13559 47.5822 1.14095 47.9357 1.09809C48.4607 1.03381 48.7499 1.18915 48.8035 1.56411L49.0124 2.7854L49.2213 4.02277C49.3713 4.95481 49.4409 5.47439 49.4302 5.58152C49.4302 5.84935 49.3177 5.99933 49.0927 6.03147C49.0285 6.04218 48.5624 5.98862 47.6947 5.87077L47.068 5.79043L46.377 5.69401L44.8664 5.50117C42.0917 5.19049 40.3883 5.18514 39.7563 5.4851C39.542 5.59223 39.4188 5.8065 39.3867 6.12789L39.3706 6.56177L39.4349 7.01172C39.4992 7.45095 39.5152 8.13124 39.4831 9.05256L39.4188 10.3703L39.3385 11.7523C39.1885 14.2484 39.1617 15.8286 39.2581 16.4928C39.3117 16.8678 39.4884 17.3284 39.7884 17.8748C40.1419 18.5069 40.4633 18.8229 40.7526 18.8229L43.1791 18.7265C43.7362 18.6836 44.8289 18.6943 46.4573 18.7586Z" fill="#00AB55"/>
<path d="M86.31 1.08202C84.8959 1.0606 83.7764 1.13023 82.9514 1.29093C82.8015 1.32307 82.6997 1.56411 82.6461 2.01406L82.5979 2.56043L82.5658 2.99431C82.5015 3.44426 82.464 4.28524 82.4533 5.51724C82.4533 6.02076 82.4586 6.62069 82.4694 7.31704L82.5015 9.27754C82.5551 12.8021 82.5336 14.8966 82.4372 15.5608L82.4051 15.8179L82.3408 16.2196C82.2765 16.5839 82.2122 16.9053 82.148 17.1838C81.9337 18.0301 81.6873 18.4908 81.4088 18.5658C80.9695 18.6836 80.1821 18.7318 79.0465 18.7104L78.3716 18.6943L77.761 18.6783C77.2896 18.6568 76.9896 18.6461 76.8611 18.6461C76.5932 18.6461 76.3522 18.3033 76.1379 17.6177C76.0736 17.382 76.0094 17.1088 75.9451 16.7981L75.8808 16.4446L75.8487 16.1714C75.7844 15.7643 75.7737 14.7144 75.8165 13.0218L75.8487 11.8487L75.8969 10.6113L75.9612 8.02411C76.0469 3.57817 75.8487 1.32307 75.3666 1.25879L74.306 1.11416L73.2775 0.985606C72.5276 0.93204 71.9063 1.0231 71.4135 1.25879C70.8992 1.5159 70.7492 4.51557 70.9635 10.2578C71.0171 11.5862 71.0492 12.9575 71.0599 14.3716C71.0706 15.3679 71.0653 16.5142 71.0439 17.8105C71.0224 20.4566 71.0278 22.0797 71.0599 22.6796C71.0813 23.076 71.3545 23.376 71.8795 23.5795C72.0723 23.6545 72.2866 23.7134 72.5223 23.7563C72.7151 23.7777 72.8811 23.7884 73.0204 23.7884C73.0954 23.7884 73.8078 23.8152 75.1577 23.8688L76.8611 23.9491C77.4931 23.9705 78.002 23.9866 78.3877 23.9973C78.6448 24.008 79.8393 23.9813 81.9712 23.917L83.1604 23.8688L84.1888 23.8366C84.8637 23.8152 85.2333 23.8045 85.2976 23.8045C85.5869 23.8259 85.8386 23.7616 86.0529 23.6117C86.3207 23.4402 86.4975 23.151 86.5832 22.7439C86.5939 22.701 86.626 22.4118 86.6796 21.8761C86.7225 21.2655 86.776 20.5531 86.8403 19.7389C87.001 17.5105 87.1296 15.3358 87.226 13.2146C87.5152 6.76532 87.4295 2.84433 86.9689 1.45163C86.8832 1.21594 86.6635 1.09274 86.31 1.08202Z" fill="#00AB55"/>
<path d="M104.437 11.688C104.222 10.6917 103.156 10.0703 101.239 9.8239L95.8393 9.40609C95.4322 9.34181 95.1912 9.15969 95.1162 8.85973C95.0626 8.64546 95.0787 8.28122 95.1644 7.76699C95.2501 7.20991 95.3733 6.86173 95.534 6.72247C95.8768 6.43321 96.3321 6.25109 96.8999 6.1761L97.6873 6.11182L98.5229 6.09575C100.237 6.06361 101.608 6.11718 102.637 6.25645C103.537 6.385 104.11 6.36893 104.356 6.20824C104.603 6.04754 104.742 5.60295 104.774 4.87446L104.79 4.36023L104.774 3.846C104.56 2.44259 104.308 1.64982 104.019 1.46769C103.879 1.37128 102.942 1.22665 101.207 1.03381C100.371 0.937397 97.8373 0.953466 93.6056 1.08202C92.6307 1.10345 91.7523 1.23201 90.9702 1.46769C89.9203 1.76766 89.4275 2.40509 89.4918 3.37998L89.5882 4.81018L89.6525 6.20824C89.7061 7.26883 89.7168 8.34014 89.6846 9.42216C89.6632 9.68999 89.6525 10.0167 89.6525 10.4024C89.6632 10.8631 89.69 11.3023 89.7328 11.7201C89.8828 12.8343 90.1614 13.5146 90.5685 13.761C91.1148 14.0716 91.8701 14.2591 92.8343 14.3234C93.1342 14.3341 93.4878 14.3395 93.8949 14.3395L94.3448 14.3234H94.6823C97.5427 14.3984 99.0746 14.8858 99.2782 15.7857C99.396 16.4392 99.4175 17.0124 99.3425 17.5052C99.2782 17.9123 98.6408 18.1587 97.4302 18.2444C96.991 18.2658 96.4982 18.2712 95.9518 18.2605C95.534 18.2497 95.1429 18.2283 94.7787 18.1962L92.995 17.9712L91.2112 17.7302C90.0757 17.5909 89.465 17.9123 89.3793 18.6943C89.2507 19.9156 89.1436 21.3083 89.0579 22.8724C89.0365 23.3974 89.3472 23.692 89.99 23.7563L92.1754 23.933C93.0003 23.9973 93.7235 24.0134 94.3448 23.9813C96.0482 23.8955 97.6712 23.8795 99.2139 23.933L99.8567 23.9491L100.596 23.9813C101.207 23.992 101.731 23.9973 102.171 23.9973C103.392 23.9866 104.104 23.8902 104.308 23.7081C104.597 23.4617 104.769 22.7439 104.822 21.5547L104.854 20.3977L104.903 19.2728C104.935 18.3622 104.929 17.5534 104.886 16.8463L104.726 14.0663C104.651 12.995 104.554 12.2022 104.437 11.688Z" fill="#00AB55"/>
</svg>

<svg xmlns="http://www.w3.org/2000/svg" width="108" height="24" fill="none"><path fill="#00AB55" fill-rule="evenodd" d="M64.214 2.84c.102-.279.227-.43.375-.452 2.77-.403 4.091-.285 3.967.352 0 .447-.08 1.347-.239 2.7l-.187 1.626a27.373 27.373 0 0 0-.136 1.526l-.068 1.224-.068 1.257c-.069.95-.148 1.76-.239 2.431-.034.325-.465.61-1.294.856l-.885.268-.903.235-1.225.285c-.284.067-.42.257-.409.57.011.056.023.19.034.402l.017.57c.034.57.045 1.079.034 1.526l.085 1.442.085 1.509c.069 1.151.085 1.906.051 2.264-.034.435-.244.62-.63.553-.476-.078-1.18-.106-2.11-.084l-1.107.034-1.022-.017c-.443-.023-.641-.252-.596-.688l.085-.62.102-.604c.193-1.486.182-3.482-.034-5.985-.068-.85-.516-1.157-1.345-.923-.613.157-1.64.246-3.081.269l-.937-.067c-.238-.045-.369-.19-.392-.436l-.034-.386.035-.369c.102-1.006.181-2.314.238-3.924l.068-1.877c.045-.727.096-1.42.153-2.08.068-.57.188-.989.358-1.257a.795.795 0 0 1 .63-.369c1.271-.112 2.219.006 2.843.352l.085.067.017.017.034.067.017.05v.403l-.034.419c0 .1-.005.386-.017.855 0 .503-.005 1.017-.017 1.543 0 1.442.017 2.235.051 2.38l.051.219.086.218c.079.145.204.223.374.234.454.034.732-.218.834-.754l.12-.922.289-5.701c.011-.29.006-.772-.017-1.442l-.017-.772-.017-.687c.011-.47.25-.76.715-.872.863-.212 1.924-.302 3.184-.268.386.011.567.173.545.486l-.034.319-.205 3.52-.136 3.539c-.034.804.074 1.442.324 1.911a1.03 1.03 0 0 0 .647-.805l.05-.52.052-.503c.057-.245.108-.586.153-1.022l.102-1.208c.102-1.061.216-1.805.34-2.23l.086-.301.119-.352Zm1.822 4.326.034.336.051.453c.08-.336.125-.7.136-1.09l-.034-1.006a4.509 4.509 0 0 0-.102.301 1.164 1.164 0 0 0-.085.269v.737Zm-1.056 4.88.034.234.051.302c.148-.402.233-.833.256-1.29l-.034-1.191a2.961 2.961 0 0 0-.188.352c-.09.179-.136.29-.136.335l-.017.855.034.403Zm-4.154 2.783.034.302.034.369a8.757 8.757 0 0 0 .17-1.61l-.05-1.492c-.035.09-.08.235-.137.436a2.703 2.703 0 0 0-.085.402v1.09l.034.503Zm-.409-9.306c.091-.179.142-.29.153-.335l.069-.939-.035-.42-.017-.268-.034-.318c-.17.425-.278.883-.323 1.375l-.034 1.29a3.12 3.12 0 0 0 .221-.385Zm-.255 15.543.05.453.052.554a15.8 15.8 0 0 0 .17-2.398c0-.548-.034-1.303-.102-2.264-.034.123-.08.341-.136.654-.068.335-.102.542-.102.62l.017 1.627.05.754Zm.05-12.994-.033-.302-.017-.386a6.984 6.984 0 0 0-.273 1.593l-.017 1.51.17-.437c.08-.212.12-.346.12-.402l.068-1.073-.017-.503Zm-5.175 5.6.034.319.051.436c.102-.325.159-.671.17-1.04l-.034-.99a1.56 1.56 0 0 0-.119.286 1.169 1.169 0 0 0-.085.268l-.017.721Zm-.409-6.489.034.336.069.452a3.72 3.72 0 0 0 .187-1.09l-.034-1.006a2.19 2.19 0 0 0-.136.302c-.069.145-.103.235-.103.268l-.017.738Zm-.647 3.17.034.301.051.386c.114-.291.182-.604.205-.94l-.034-.871c-.034.056-.08.145-.137.268-.068.123-.102.201-.102.235l-.017.62Z" clip-rule="evenodd"/><path fill="#00AB55" d="M15.057 18.951c-.653-.075-1.746-.139-3.278-.192-1.628-.065-2.721-.075-3.278-.032l-2.427.096c-.289 0-.61-.316-.964-.948-.3-.547-.477-1.007-.53-1.382-.097-.664-.07-2.245.08-4.74l.08-1.383.065-1.317c.032-.922.016-1.602-.048-2.041l-.065-.45.016-.434c.033-.322.156-.536.37-.643.632-.3 2.335-.295 5.11.016l1.51.193.692.096.626.08c.868.119 1.334.172 1.399.161.224-.032.337-.182.337-.45.01-.107-.059-.626-.209-1.558l-.209-1.238-.209-1.22c-.053-.376-.343-.531-.868-.467-.353.043-1.146.038-2.378-.016l-.835-.032-.884-.032-1.88-.08C4.044.84 2.148.995 1.59 1.402.542 2.175.01 3.091 0 4.151c0 .579.091 3.787.273 9.626.193 5.924.31 8.972.354 9.144.096.385.326.642.69.771l.483.096h.418c.075 0 .433.011 1.076.033l.997.032 1.124.048c2.047.075 3.198.107 3.455.096.354-.021 1.286-.032 2.797-.032h2.796c.235 0 .418-.123.546-.37.096-.181.16-.433.193-.755l.321-3.326c.032-.332-.123-.52-.466-.563Z"/><path fill="#00AB55" fill-rule="evenodd" d="M18.092 20.59c.15-.417.348-.926.595-1.526l.289-.707c.118-.29.23-.579.337-.868.065-.182.3-.99.707-2.426l.258-.868.24-.852c.183-.621.322-1.082.418-1.382.311-1.007.665-2.32 1.06-3.937l.483-1.976.514-1.993c.097-.375.31-1.077.643-2.105.225-.697.643-1.018 1.254-.964l.385.016h.45c.407-.022.686-.022.836 0 .685.075 1.355.123 2.008.144l.836.032c.354.022.745.054 1.173.097 1.093.096 1.66.477 1.704 1.14l.016.644c0 .417.01.97.032 1.655l.032 1.944c.043 1.704.059 2.845.048 3.423v.354c.022.417.075 1.339.16 2.763l.065.965.064 1.028.129 2.137c.225 3.632.327 5.609.305 5.93-.032.504-.316.723-.852.659-.214-.032-1.37-.096-3.47-.193-.193-.01-.327-.375-.402-1.093l-.049-.53-.048-.562L28.2 20.3c-.032-.332-.166-.514-.402-.546a12.57 12.57 0 0 1-.916-.193l-.74-.193a6.979 6.979 0 0 0-1.67-.273c-.547-.032-.922.204-1.125.707l-.804 2.137c-.032.086-.101.23-.209.434-.107.236-.225.461-.353.675-.343.579-.595.873-.755.884-.675.054-1.532.075-2.572.064-.364-.01-.701-.021-1.012-.032-.268-.01-.407-.021-.418-.032-.139-.053-.053-.578.257-1.575l.37-1.109.16-.417.081-.241Zm7.167-5.543c.054.032.691.17 1.912.417.568.107.938-.225 1.11-.996.063-.268.1-.584.112-.948v-.74c0-.813-.016-1.665-.049-2.554V8.57c.011-.889-.032-1.553-.128-1.992-.054-.29-.257-.429-.61-.418l-.531.048-.257.048-.21.017c-.16 0-.288.08-.385.24l-.096.226-.048.208a32.362 32.362 0 0 0-.579 2.909l-.225 1.527c-.096.621-.193 1.2-.29 1.735l-.047.21-.065.24-.096.546c-.032.461.128.772.482.932Z" clip-rule="evenodd"/><path fill="#00AB55" d="M46.457 18.759c1.532.053 2.625.117 3.279.192.342.043.498.23.466.563l-.322 3.326c-.032.322-.096.573-.193.756-.128.246-.31.37-.546.37h-2.796c-1.51 0-2.443.01-2.796.031-.257.011-1.41-.021-3.455-.096l-1.125-.048-.997-.032a72.189 72.189 0 0 0-1.076-.033h-.418l-.482-.096c-.364-.129-.595-.386-.691-.771-.043-.172-.16-3.22-.353-9.144-.183-5.839-.274-9.047-.274-9.626.011-1.06.541-1.976 1.591-2.748.557-.407 2.453-.562 5.689-.466l1.88.08.884.033.835.032c1.232.054 2.025.059 2.379.016.525-.064.814.091.867.466l.21 1.221.208 1.238c.15.932.22 1.451.21 1.559 0 .267-.113.417-.338.45-.065.01-.53-.043-1.398-.161l-.627-.08-.691-.097-1.51-.193c-2.775-.31-4.479-.316-5.11-.016-.215.107-.338.321-.37.643l-.016.434.064.45c.064.439.08 1.12.048 2.04l-.064 1.318-.08 1.382c-.15 2.496-.177 4.077-.08 4.74.053.376.23.836.53 1.383.353.632.674.948.964.948l2.426-.096c.557-.043 1.65-.033 3.278.032ZM86.31 1.082c-1.414-.021-2.534.048-3.359.209-.15.032-.251.273-.305.723l-.048.546-.032.434c-.065.45-.102 1.291-.113 2.523 0 .504.006 1.104.016 1.8l.032 1.96c.054 3.525.033 5.62-.064 6.284l-.032.257-.064.402c-.064.364-.129.685-.193.964-.214.846-.46 1.307-.74 1.382-.439.118-1.226.166-2.362.144l-.674-.016-.611-.016a26.905 26.905 0 0 0-.9-.032c-.268 0-.509-.343-.723-1.028a13.705 13.705 0 0 1-.193-.82l-.064-.353-.032-.274c-.065-.407-.075-1.457-.032-3.15l.032-1.172.048-1.238.064-2.587c.086-4.446-.112-6.7-.594-6.765l-1.061-.145-1.028-.128c-.75-.054-1.372.037-1.865.273-.514.257-.664 3.257-.45 8.999.054 1.328.086 2.7.097 4.114.01.996.005 2.142-.016 3.439-.022 2.646-.016 4.269.016 4.869.021.396.294.696.82.9.192.075.407.133.642.176.193.022.36.032.498.032.075 0 .788.027 2.138.08l1.703.081c.632.021 1.141.038 1.527.048.257.011 1.451-.016 3.583-.08l1.19-.048 1.028-.032a91.408 91.408 0 0 1 1.109-.032c.289.02.54-.043.755-.193.268-.172.445-.461.53-.868.01-.043.043-.332.097-.868.042-.61.096-1.323.16-2.137.161-2.229.29-4.403.386-6.524.29-6.45.204-10.37-.257-11.763-.086-.236-.305-.36-.659-.37ZM104.437 11.688c-.215-.996-1.281-1.618-3.198-1.864l-5.4-.418c-.407-.064-.648-.246-.723-.546-.053-.215-.037-.579.048-1.093.086-.557.21-.905.37-1.045.343-.289.798-.47 1.366-.546l.787-.064.836-.016c1.714-.032 3.085.021 4.114.16.9.129 1.473.113 1.719-.048.247-.16.386-.605.418-1.334l.016-.514-.016-.514c-.214-1.403-.466-2.196-.755-2.378-.14-.097-1.077-.241-2.812-.434-.836-.097-3.37-.08-7.601.048-.975.021-1.854.15-2.636.386-1.05.3-1.543.937-1.478 1.912l.096 1.43.065 1.398a40.05 40.05 0 0 1 .032 3.214c-.022.268-.032.595-.032.98.01.461.037.9.08 1.318.15 1.114.428 1.795.835 2.041.547.31 1.302.498 2.266.562.3.011.654.016 1.06.016l.45-.016h.338c2.86.075 4.393.563 4.596 1.463.118.653.14 1.226.064 1.72-.064.406-.701.653-1.912.738-.439.022-.932.027-1.478.017-.418-.011-.81-.033-1.173-.065l-1.784-.225-1.784-.24c-1.135-.14-1.746.181-1.832.963a84.451 84.451 0 0 0-.321 4.178c-.022.525.29.82.932.884l2.185.177c.825.064 1.549.08 2.17.048a57.387 57.387 0 0 1 4.869-.048l.643.016.739.032c.611.011 1.135.016 1.575.016 1.221-.01 1.933-.107 2.137-.289.289-.246.461-.964.514-2.153l.032-1.157.049-1.125c.032-.91.026-1.72-.017-2.427l-.16-2.78c-.075-1.071-.172-1.864-.289-2.378Z"/></svg>
